X:1
T:Whittle, 10.10.10.D
T:May Whittle Moody, 1893
T:Whittle, 10.10.10.D
T:Public Domain
C:May Whittle Moody, 1893
Z:Public Domain
%%score ( 1 2 ) ( 3 4 )
L:1/8
M:3/4
K:F
V:1 treble 
V:2 treble 
V:3 bass 
V:4 bass 
V:1
 C2 [CF]2 [CG]2 | [FA]2 [FA]2 [FA]2 | [FB]2 F2 [FG]2 | [FA]6 | [EA]2 [EG]2 [^D^F]2 | %5
 [EG]2 [EA]2 [EG]2 | [CF]2 [=B,E]3 [B,D] | [CG]6 | C2 [CF]2 [CG]2 | [FA]2 [FA]2 [FA]2 | %10
 [FB]2 [FB]2 [F=B]2 | [Fc]6 | [_Ec]2 [EB]2 [EA]2 | D2 [DG]2 [DF]2 | [CE]2 [EA]2 [EG]2 | [CF]6 | %16
 [FA]2 [GB]2 [Ac]2 | [FA]2 [CG]2 [CF]2 | [CE]3 [DF] [EG]2 | [FA]6 | [FA]2 [FB]2 [Fc]2 | %21
 [FA]2 [EG]2 [DF]2 | [=B,D]3 [CE] [DF]2 | [EG]6 | C2 [CF]2 [CG]2 | [FA]2 [FA]2 [GA]2 | %26
 [^Fd]2 [Fd]3 [Ac] | [GB]6 | [DB]2 [DA]2 [DG]2 | D2 [DG]2 [DF]2 | [CE]2 [EA]3 [CG] | [CF]6 |] %32
V:2
 C2 x4 | x6 | x2 F2 x2 | x6 | x6 | x6 | x6 | x6 | x6 | x6 | x6 | x6 | x6 | D2 x4 | x6 | x6 | x6 | %17
 x6 | x6 | x6 | x6 | x6 | x6 | x6 | C2 x4 | x6 | x6 | x6 | x6 | D2 x4 | x6 | x6 |] %32
V:3
 [F,A,]2 [F,A,]2 [F,B,]2 | [F,C]2 [F,C]2 [F,^C]2 | [F,D]2 [F,D]2 [F,D]2 | [F,C]6 | %4
 [C,C]2 [C,B,]2 [C,A,]2 | [C,B,]2 [C,C]2 [C,B,]2 | [F,A,]2 [F,_A,]3 [F,A,] | (G,4 B,2) | %8
 [F,A,]2 [F,A,]2 [F,B,]2 | [F,C]2 [F,C]2 [_E,C]2 | [D,B,]2 [D,B,]2 [_D,^G,]2 | [C,A,]6 | %12
 [F,A,]2 [F,G,]2 F,2 | [B,,G,]2 [B,,G,]2 [=B,,G,]2 | [C,G,]2 [C,C]2 [C,B,]2 | [F,,F,A,]6 | %16
 [F,C]2 [F,C]2 [F,C]2 | [F,C]2 [F,B,]2 [F,A,]2 | [C,G,]3 [C,C] [C,C]2 | [F,C]6 | %20
 [F,C]2 [F,G,]2 [F,A,]2 | [F,C]2 [C,B,]2 [D,A,]2 | [F,G,]3 [E,G,] [D,G,]2 | (G,4 B,2) | %24
 [F,A,]2 [F,A,]2 [F,B,]2 | [F,C]2 [F,C]2 [_E,C]2 | [D,A,]2 [D,A,]3 [D,D] | [G,D]6 | %28
 [G,,B,]2 [A,,C]2 [B,,B,]2 | [B,,G,]2 [B,,G,]2 [=B,,G,]2 | [C,G,]2 [C,C]3 [C,B,] | [F,,F,A,]6 |] %32
V:4
 x6 | x6 | x6 | x6 | x6 | x6 | x6 | E,6 | x6 | x6 | x6 | x6 | x6 | x6 | x6 | x6 | x6 | x6 | x6 | %19
 x6 | x6 | x6 | x6 | C,6 | x6 | x6 | x6 | x6 | x6 | x6 | x6 | x6 |] %32

